X: 28
T:Ne
R:polka
Z:added by Alf 
M:2/4
L:1/16
K:D
| D3E F2A2|d2c2 B2A2|E3F G2E2|B2A2 F4|\
D3E F2A2|d2c2 B2A2|E3F G2E2|B2A2 D4:|
f2A2 f2A2|f2A2 f3f|e2B2 e2B2|e2B2 e3e|\
f2A2 f2A2|f2A2 f3f|e2B2 c2d2|e2d2 d4:|
